src/routes/Solucoes_RH/Pales_Trein/assets_pales_trein/category-1.svg

<svg xmlns="http://www.w3.org/2000/svg" width="34" height="40" viewBox="0 0 34 40" fill="none" data-inject-url="https://edublink.html.devsblink.com/assets/images/animated-svg-icons/online-degree.svg" class="svgInject">
    <path d="M7.70459 25.5939L12.8535 30.8403C13.015 31.0021 13.11 31.2307 13.11 31.4592V35.0298C13.11 35.4106 13.3475 35.7439 13.699 35.8676C15.0575 36.3342 18.4679 36.7341 20.9664 38.8574C21.5364 39.3335 22.4009 38.905 22.4009 38.1719V34.3918C22.4009 32.9921 23.4744 31.8496 24.8613 31.7067C27.1033 31.4592 30.0483 29.9452 29.8773 23.6325C29.8678 23.1373 30.2763 22.7279 30.7702 22.7279H31.8247C32.8507 22.7279 33.4112 21.5377 32.7557 20.7474L29.6873 17.015C29.3928 16.6627 29.2313 16.2057 29.2313 15.7486V10.2833C29.2503 6.19852 25.8683 0.952148 19.4559 0.952148C13.0435 0.952148 8.72108 3.58009 8.72108 6.4556" stroke="#1ab69d" stroke-width="2" stroke-miterlimit="10" stroke-linejoin="round" style="stroke-dasharray: 86, 88; stroke-dashoffset: 0;"></path>
    <path d="M24.1014 5.98926V23.9945C24.1014 24.9752 23.3129 25.7655 22.3344 25.7655H20.1779C19.9499 25.7655 19.7409 25.8798 19.6269 26.0797L17.9739 28.7648C17.9169 28.8505 17.8029 28.8695 17.7269 28.8029L14.554 25.9369C14.4305 25.8322 14.2785 25.7655 14.117 25.7655H2.71717C1.73868 25.7655 0.950195 24.9657 0.950195 23.9945V7.88404C0.950195 6.90333 1.73868 6.11304 2.71717 6.11304H18.7624" stroke="#1ab69d" stroke-width="2" stroke-miterlimit="10" stroke-linecap="round" stroke-linejoin="round" style="stroke-dasharray: 81, 83; stroke-dashoffset: 0;"></path>
    <path d="M12.2168 17.5674C13.1717 17.5674 13.9457 16.7915 13.9457 15.8345C13.9457 14.8774 13.1717 14.1016 12.2168 14.1016C11.2619 14.1016 10.4878 14.8774 10.4878 15.8345C10.4878 16.7915 11.2619 17.5674 12.2168 17.5674Z" stroke="#1ab69d" stroke-width="2" stroke-miterlimit="10" style="stroke-dasharray: 11, 13; stroke-dashoffset: 0;"></path>
    <path d="M7.70456 12.9688C8.65945 12.9688 9.43354 12.1929 9.43354 11.2359C9.43354 10.2788 8.65945 9.50293 7.70456 9.50293C6.74967 9.50293 5.97559 10.2788 5.97559 11.2359C5.97559 12.1929 6.74967 12.9688 7.70456 12.9688Z" stroke="#1ab69d" stroke-width="2" stroke-miterlimit="10" style="stroke-dasharray: 11, 13; stroke-dashoffset: 0;"></path>
    <path d="M16.7295 12.9688C17.6843 12.9688 18.4584 12.1929 18.4584 11.2359C18.4584 10.2788 17.6843 9.50293 16.7295 9.50293C15.7746 9.50293 15.0005 10.2788 15.0005 11.2359C15.0005 12.1929 15.7746 12.9688 16.7295 12.9688Z" stroke="#1ab69d" stroke-width="2" stroke-miterlimit="10" style="stroke-dasharray: 11, 13; stroke-dashoffset: 0;"></path>
    <path d="M7.70456 22.167C8.65945 22.167 9.43354 21.3912 9.43354 20.4341C9.43354 19.477 8.65945 18.7012 7.70456 18.7012C6.74967 18.7012 5.97559 19.477 5.97559 20.4341C5.97559 21.3912 6.74967 22.167 7.70456 22.167Z" stroke="#1ab69d" stroke-width="2" stroke-miterlimit="10" style="stroke-dasharray: 11, 13; stroke-dashoffset: 0;"></path>
    <path d="M16.7295 22.167C17.6843 22.167 18.4584 21.3912 18.4584 20.4341C18.4584 19.477 17.6843 18.7012 16.7295 18.7012C15.7746 18.7012 15.0005 19.477 15.0005 20.4341C15.0005 21.3912 15.7746 22.167 16.7295 22.167Z" stroke="#1ab69d" stroke-width="2" stroke-miterlimit="10" style="stroke-dasharray: 11, 13; stroke-dashoffset: 0;"></path>
    <path d="M13.3472 14.5296L15.4656 12.4062" stroke="#1ab69d" stroke-width="2" stroke-miterlimit="10" style="stroke-dasharray: 3, 5; stroke-dashoffset: 0;"></path>
    <path d="M10.9152 14.7009L8.73975 12.5205" stroke="#1ab69d" stroke-width="2" stroke-miterlimit="10" style="stroke-dasharray: 4, 6; stroke-dashoffset: 0;"></path>
    <path d="M10.8582 17.7295L8.73975 19.8528" stroke="#1ab69d" stroke-width="2" stroke-miterlimit="10" style="stroke-dasharray: 3, 5; stroke-dashoffset: 0;"></path>
    <path d="M13.2808 17.5576L15.4657 19.738" stroke="#1ab69d" stroke-width="2" stroke-miterlimit="10" style="stroke-dasharray: 4, 6; stroke-dashoffset: 0;"></path>
    <path d="M21.4507 6.55079C21.692 6.55079 21.8877 6.35469 21.8877 6.1128C21.8877 5.8709 21.692 5.6748 21.4507 5.6748C21.2093 5.6748 21.0137 5.8709 21.0137 6.1128C21.0137 6.35469 21.2093 6.55079 21.4507 6.55079Z" stroke="#1ab69d" stroke-miterlimit="10" stroke-linecap="round" stroke-linejoin="round" style="stroke-dasharray: 3, 5; stroke-dashoffset: 0;"></path>
</svg>

<svg xmlns="http://www.w3.org/2000/svg" width="34" height="40" fill="none" data-inject-url="https://edublink.html.devsblink.com/assets/images/animated-svg-icons/online-degree.svg" class="svgInject"><path d="m7.705 25.594 5.149 5.246c.161.162.256.39.256.62v3.57c0 .38.238.714.589.838 1.358.466 4.769.866 7.267 2.99.57.476 1.435.047 1.435-.686v-3.78c0-1.4 1.073-2.542 2.46-2.685 2.242-.248 5.187-1.762 5.016-8.075a.895.895 0 0 1 .893-.904h1.055c1.026 0 1.586-1.19.93-1.98l-3.068-3.733a1.99 1.99 0 0 1-.456-1.266v-5.466c.02-4.084-3.363-9.33-9.775-9.33C13.044.952 8.72 3.58 8.72 6.455" stroke="#1ab69d" stroke-width="2" stroke-miterlimit="10" stroke-linejoin="round" style="stroke-dasharray:86,88;stroke-dashoffset:0"/><path d="M24.101 5.99v18.005c0 .98-.788 1.77-1.767 1.77h-2.156a.626.626 0 0 0-.551.315l-1.653 2.685a.164.164 0 0 1-.247.038l-3.173-2.866a.68.68 0 0 0-.437-.172h-11.4c-.978 0-1.767-.8-1.767-1.77V7.883c0-.98.789-1.771 1.767-1.771h16.045" stroke="#1ab69d" stroke-width="2" stroke-miterlimit="10" stroke-linecap="round" stroke-linejoin="round" style="stroke-dasharray:81,83;stroke-dashoffset:0"/><path d="M12.217 17.567a1.73 1.73 0 0 0 1.729-1.732 1.73 1.73 0 0 0-1.73-1.733 1.73 1.73 0 0 0-1.728 1.732c0 .957.774 1.733 1.729 1.733ZM7.705 12.969c.954 0 1.729-.776 1.729-1.733 0-.957-.775-1.733-1.73-1.733-.954 0-1.728.776-1.728 1.733 0 .957.774 1.733 1.729 1.733ZM16.73 12.969c.954 0 1.728-.776 1.728-1.733 0-.957-.774-1.733-1.728-1.733-.955 0-1.73.776-1.73 1.733 0 .957.775 1.733 1.73 1.733ZM7.705 22.167a1.73 1.73 0 0 0 1.729-1.733 1.73 1.73 0 0 0-1.73-1.733 1.73 1.73 0 0 0-1.728 1.733 1.73 1.73 0 0 0 1.729 1.733ZM16.73 22.167a1.73 1.73 0 0 0 1.728-1.733 1.73 1.73 0 0 0-1.728-1.733A1.73 1.73 0 0 0 15 20.434a1.73 1.73 0 0 0 1.73 1.733Z" stroke="#1ab69d" stroke-width="2" stroke-miterlimit="10" style="stroke-dasharray:11,13;stroke-dashoffset:0"/><path d="m13.347 14.53 2.119-2.124" stroke="#1ab69d" stroke-width="2" stroke-miterlimit="10" style="stroke-dasharray:3,5;stroke-dashoffset:0"/><path d="M10.915 14.7 8.74 12.52" stroke="#1ab69d" stroke-width="2" stroke-miterlimit="10" style="stroke-dasharray:4,6;stroke-dashoffset:0"/><path d="M10.858 17.73 8.74 19.853" stroke="#1ab69d" stroke-width="2" stroke-miterlimit="10" style="stroke-dasharray:3,5;stroke-dashoffset:0"/><path d="m13.28 17.558 2.186 2.18" stroke="#1ab69d" stroke-width="2" stroke-miterlimit="10" style="stroke-dasharray:4,6;stroke-dashoffset:0"/><path d="M21.45 6.55a.438.438 0 1 0 0-.874.438.438 0 0 0 0 .875Z" stroke="#1ab69d" stroke-miterlimit="10" stroke-linecap="round" stroke-linejoin="round" style="stroke-dasharray:3,5;stroke-dashoffset:0"/></svg>
